X: 11578
T: Edward On Loch Erne's Shore
R: waltz
M: 3/4
K: Gmajor
G||GE D3E|GA d3d|g2 g3 f|ef g3 d|
d4 BA|GF G3B|A3G ED|E4zG|
GE D3E|GA d3d|g2 g3 f|ef g3B|
c4BA|BG3EF|G4F2|G6|z3B Bd|
ee3g2|f4a2|ed e4|e2ze ed|
BA G3B|A3G ED|E6|E2 z2 GA|
GE D3E|GA d3d|g2 g3 f|ef g3 B|
c4BA|BG3EF|G4F2|G6||

